static/icons/share.svg

<svg xmlns="http://www.w3.org/2000/svg" width="24" height="24" viewBox="0 0 24 24">
  <path fill-rule="evenodd" d="M17.0481928,15.2963855 C17.4594398,15.2963855 17.8449781,15.4024086 18.2048193,15.6144578 C18.5646604,15.8265071 18.8506013,16.112448 19.0626506,16.4722892 C19.2746999,16.8321303 19.3807229,17.2176686 19.3807229,17.6289157 C19.3807229,18.0401627 19.2746999,18.4289138 19.0626506,18.7951807 C18.8506013,19.1614476 18.5646604,19.4538142 18.2048193,19.6722892 C17.8449781,19.8907641 17.4594398,20 17.0481928,20 C16.6369457,20 16.2514074,19.8907641 15.8915663,19.6722892 C15.5317251,19.4538142 15.2457842,19.1614476 15.0337349,18.7951807 C14.8216857,18.4289138 14.7156627,18.0401627 14.7156627,17.6289157 C14.7156627,17.3718863 14.7285139,17.198394 14.7542169,17.1084337 L9.06746988,13.7927711 C8.60481696,14.2168696 8.05221205,14.4289157 7.40963855,14.4289157 C6.98554005,14.4289157 6.58715046,14.3196798 6.21445783,14.1012048 C5.8417652,13.8827298 5.54618583,13.5871505 5.32771084,13.2144578 C5.10923586,12.8417652 5,12.4433756 5,12.0192771 C5,11.5951786 5.10923586,11.196789 5.32771084,10.8240964 C5.54618583,10.4514038 5.8417652,10.1558244 6.21445783,9.9373494 C6.58715046,9.71887441 6.98554005,9.60963855 7.40963855,9.60963855 C8.05221205,9.60963855 8.60481696,9.82168463 9.06746988,10.2457831 L14.7156627,6.9686747 C14.6642568,6.7116453 14.6385542,6.52530178 14.6385542,6.40963855 C14.6385542,5.98554005 14.7477901,5.58715046 14.9662651,5.21445783 C15.18474,4.8417652 15.4803194,4.54618583 15.853012,4.32771084 C16.2257047,4.10923586 16.6240943,4 17.0481928,4 C17.4722913,4 17.8706809,4.10923586 18.2433735,4.32771084 C18.6160661,4.54618583 18.9116455,4.8417652 19.1301205,5.21445783 C19.3485955,5.58715046 19.4578313,5.98554005 19.4578313,6.40963855 C19.4578313,6.83373706 19.3485955,7.23212665 19.1301205,7.60481928 C18.9116455,7.9775119 18.6160661,8.27309128 18.2433735,8.49156627 C17.8706809,8.71004125 17.4722913,8.81927711 17.0481928,8.81927711 C16.4570252,8.81927711 15.9044202,8.59437976 15.3903614,8.14457831 L9.74216867,11.460241 C9.79357455,11.6915674 9.81927711,11.8714853 9.81927711,12 C9.81927711,12.1285147 9.79357455,12.3212839 9.74216867,12.5783133 L15.4674699,15.8939759 C15.9301228,15.4955803 16.4570252,15.2963855 17.0481928,15.2963855 Z"/>
</svg>

<svg xmlns="http://www.w3.org/2000/svg" width="24" height="24">
    <path fill-rule="evenodd" d="M17.048 15.296c.411 0 .797.106 1.157.318.36.213.646.498.858.858.212.36.318.746.318 1.157 0 .411-.106.8-.318 1.166a2.44 2.44 0 0 1-.858.877 2.19 2.19 0 0 1-1.157.328 2.19 2.19 0 0 1-1.156-.328 2.44 2.44 0 0 1-.858-.877 2.291 2.291 0 0 1-.318-1.166c0-.257.013-.43.038-.52l-5.687-3.316a2.37 2.37 0 0 1-1.657.636c-.424 0-.823-.11-1.196-.328a2.444 2.444 0 0 1-.886-.887A2.325 2.325 0 0 1 5 12.02c0-.424.11-.822.328-1.195.218-.373.514-.668.886-.887A2.325 2.325 0 0 1 7.41 9.61a2.37 2.37 0 0 1 1.657.636l5.649-3.277a3.237 3.237 0 0 1-.077-.56c0-.423.109-.822.327-1.195.219-.372.514-.668.887-.886A2.325 2.325 0 0 1 17.048 4c.424 0 .823.11 1.195.328.373.218.669.514.887.886.219.373.328.772.328 1.196 0 .424-.11.822-.328 1.195a2.444 2.444 0 0 1-.887.887 2.325 2.325 0 0 1-1.195.327c-.591 0-1.144-.225-1.658-.674L9.742 11.46c.052.232.077.411.077.54 0 .129-.025.321-.077.578l5.725 3.316c.463-.398.99-.598 1.581-.598z"/>
</svg>
